assets/symbols/mulberry/flag_south_africa.svg

<svg height="850.394" viewBox="0 0 850.394 850.394" width="850.394" xmlns="http://www.w3.org/2000/svg"><path d="m748.18 420v100.17h-476.18v-2.17l166-100 308 2z" fill="#0071bc"/><path d="m748.18 388v32h-2.18l-308-2-166 100v2.17h-50.22v-3.86l208.22-128.31zm0-126v28h-322.18l-204-146v-3.66h50.45l161.55 121.66h310z" fill="#fff"/><path d="m748.18 177.46v84.54h-314.18l-161.55-121.66h475.73z" fill="#ed1e29"/><path d="m383.83 343.75-215.73 126.74-.31-34.42 161.13-94.67-162.7-113.08-.22-34.32z" fill="#fbed24"/><path d="m328.92 341.4-161.13 94.67-.83-89.49-.74-118.26z" fill="#231f20"/><path d="m162.61 114.42c-5.96 2.8-13.07 4.43-20.69 4.43-7.3 0-14.12-1.49-19.92-4.08-10.99-4.89-18.33-13.72-18.33-23.8 0-15.4 17.13-27.88 38.25-27.88 21.13 0 38.26 12.48 38.26 27.88 0 9.84-7 18.49-17.57 23.45z" fill="#c8c8c8"/><path d="m167.79 436.07.31 34.42-.35.21-.22-34.48z" fill="#fff"/><path d="m167.79 436.07-.26.15-.57-89.64zm-1.57-207.75.74 118.26-1.08-118.5z" fill="#fff"/><path d="m166 194 .22 34.32-.34-.24-.81-87.74h56.93v3.66l204 146h322.18v98h-318.18l-208.22 128.31v3.86h-53.22l-.46-49.68 215.73-126.74z" fill="#34a047"/><path d="m162.61 439.11v346.27h-39.49l-1.12-670.61c5.8 2.59 12.62 4.08 19.92 4.08 7.62 0 14.73-1.63 20.69-4.43z" fill="#c8c8c8"/><g fill="none"><g stroke="#231f20"><path d="m165.07 140.34h583.11v379.83h-579.62m-46.56-405.4c-10.99-4.89-18.33-13.72-18.33-23.8 0-15.4 17.13-27.88 38.25-27.88 21.13 0 38.26 12.48 38.26 27.88 0 9.84-7 18.49-17.57 23.45-5.96 2.8-13.07 4.43-20.69 4.43-7.3 0-14.12-1.49-19.92-4.08z" stroke-width="21"/><path d="m122 114v.77l1.12 670.61m39.49-672.78v672.78" stroke-width="21"/><g stroke-width="14"><path d="m744.76 179.39 3.42-1.93 2.01-1.14m-584.19 17.68 217.83 149.75-215.73 126.74-.35.21"/><path d="m160 224 2.61 1.81 3.27 2.27.34.24 162.7 113.08-161.13 94.67-.26.15-4.92 2.89-2.95 1.73m62.12 75.47 208.22-128.31h320"/><path d="m272 518 166-100 308 2m-2-130h-318l-204-146"/><path d="m744 262h-310l-161.55-121.66-.45-.34"/></g></g><path d="m0 0h850.394v850.394h-850.394z"/></g></svg>

<svg xmlns="http://www.w3.org/2000/svg" width="850.394" height="850.394" viewBox="0 0 850.394 850.394" overflow="visible"><path fill="#0071bc" d="M748.18 420v100.17H272V518l166-100 308 2z"/><path fill="#fff" d="M748.18 388v32H746l-308-2-166 100v2.17h-50.22v-3.86L430 388zM748.18 262v28H426L222 144v-3.66h50.45L434 262h310z"/><path fill="#ed1e29" d="M748.18 177.46V262H434L272.45 140.34h475.73z"/><path fill="#fbed24" d="M383.83 343.75L168.1 470.49l-.31-34.42 161.13-94.67-162.7-113.08L166 194z"/><path fill="#231f20" d="M328.92 341.4l-161.13 94.67-.83-89.49-.74-118.26z"/><path d="M162.61 114.42c-5.96 2.8-13.07 4.43-20.69 4.43-7.3 0-14.12-1.49-19.92-4.08-10.99-4.89-18.33-13.72-18.33-23.8 0-15.4 17.13-27.88 38.25-27.88 21.13 0 38.26 12.48 38.26 27.88 0 9.84-7 18.49-17.57 23.45z" fill="#c8c8c8"/><path fill="#fff" d="M167.79 436.07l.31 34.42-.35.21-.22-34.48z"/><path fill="#fff" d="M167.79 436.07l-.26.15-.57-89.64zM166.22 228.32l.74 118.26-1.08-118.5z"/><path fill="#34a047" d="M166 194l.22 34.32-.34-.24-.81-87.74H222V144l204 146h322.18v98H430L221.78 516.31v3.86h-53.22l-.46-49.68 215.73-126.74z"/><path d="M162.61 439.11v346.27h-39.49L122 114.77c5.8 2.59 12.62 4.08 19.92 4.08 7.62 0 14.73-1.63 20.69-4.43v324.69z" fill="#c8c8c8"/><g fill="none" stroke="#231f20"><path stroke-width="21" d="M165.07 140.34h583.11v379.83H168.56M122 114.77c-10.99-4.89-18.33-13.72-18.33-23.8 0-15.4 17.13-27.88 38.25-27.88 21.13 0 38.26 12.48 38.26 27.88 0 9.84-7 18.49-17.57 23.45-5.96 2.8-13.07 4.43-20.69 4.43-7.3 0-14.12-1.49-19.92-4.08z"/><path stroke-width="21" d="M122 114v.77l1.12 670.61M162.61 112.6v672.78"/><path stroke-width="14" d="M744.76 179.39l3.42-1.93 2.01-1.14M166 194l217.83 149.75L168.1 470.49l-.35.21"/><path stroke-width="14" d="M160 224l2.61 1.81 3.27 2.27.34.24 162.7 113.08-161.13 94.67-.26.15-4.92 2.89-2.95 1.73M221.78 516.31L430 388h320"/><path stroke-width="14" d="M272 518l166-100 308 2M744 290H426L222 144"/><path stroke-width="14" d="M744 262H434L272.45 140.34 272 140"/></g><path fill="none" d="M0 0h850.394v850.394H0z"/></svg>
